small/extra/status/standard/battery-charging-040.svg

<?xml version="1.0" encoding="UTF-8" standalone="no"?>
<svg
   xmlns:dc="http://purl.org/dc/elements/1.1/"
   xmlns:cc="http://creativecommons.org/ns#"
   xmlns:rdf="http://www.w3.org/1999/02/22-rdf-syntax-ns#"
   xmlns:svg="http://www.w3.org/2000/svg"
   xmlns="http://www.w3.org/2000/svg"
   id="svg2"
   viewBox="0 0 512 512"
   height="100%"
   width="100%"
   version="1.1">
  <metadata
     id="metadata106">
    <rdf:RDF>
      <cc:Work
         rdf:about="">
        <dc:format>image/svg+xml</dc:format>
        <dc:type
           rdf:resource="http://purl.org/dc/dcmitype/StillImage" />
        <dc:title />
      </cc:Work>
    </rdf:RDF>
  </metadata>
  <defs
     id="defs104" />
  <rect
     width="512"
     height="512"
     rx="25.988001"
     x="-7.7148434e-06"
     y="-5.029297e-06"
     id="rect4"
     style="fill:#e4a146;fill-opacity:1" />
  <path
     id="path3181"
     d="M 256,41 C 233.55523,41 211.20408,44.91583 189.59375,51.9375 146.3726,65.98089 108.71216,93.32772 82,130.09375 55.2881,166.85977 40.8125,210.74222 40.8125,256.1875 c 0,45.4453 14.4756,89.32773 41.1875,126.09375 6.66187,9.16925 13.99728,17.74728 21.9375,25.6875 L 207.96875,512 486,512 c 14.39735,0 26,-11.60265 26,-26 L 512,208.34375 408.09375,104.4375 C 384.19083,80.53457 354.86083,62.48268 322.40625,51.9375 300.79566,44.91583 278.44452,41 256,41 Z"
     style="opacity:0.25;fill:#000000;fill-opacity:1;stroke:none" />
  <g
     id="g8"
     style="fill:#ffd459"
     transform="matrix(0.68258418,0,0,0.68258418,81.26215,81.27569)">
    <path
       d="m -80.26,130.11 c 0.082,-0.262 -0.086,-0.522 -0.375,-0.522 l -4.908,0 c -0.289,0 -0.352,-0.235 -0.167,-0.446 l 10.486,-13.416 c 0.185,-0.212 0.252,-0.175 0.148,0.082 l -2.303,9.37 c -0.104,0.257 0.047,0.411 0.336,0.411 l 4.919,0 c 0.289,0 0.382,0.232 0.205,0.451 l -10.511,13.407 c -0.176,0.219 -0.254,0.18 -0.17,-0.082 z"
       transform="matrix(17.85529,0,0,17.85529,1663.4,-2022.08)"
       id="path10"
       style="fill:#ffd459;fill-rule:evenodd" />
  </g>
  <path
     id="path3096"
     d="M 256,41 C 233.55523,41 211.20408,44.91583 189.59375,51.9375 146.3726,65.98089 108.71216,93.32772 82,130.09375 55.2881,166.85977 40.8125,210.74222 40.8125,256.1875 c 0,45.4453 14.4756,89.32773 41.1875,126.09375 26.71216,36.76602 64.3726,64.14414 107.59375,78.1875 43.2209,14.04339 89.59133,14.04339 132.8125,0 C 365.62714,446.42539 403.28784,419.04727 430,382.28125 456.71217,345.51523 471.1875,301.6328 471.1875,256.1875 471.1875,210.74222 456.71217,166.85977 430,130.09375 403.28784,93.32772 365.62715,65.98089 322.40625,51.9375 300.79566,44.91583 278.44452,41 256,41 Z m 0,45.65625 c 18.23854,0 35.63045,3.51366 52.09375,8.84375 34.5432,11.18371 63.91858,33.02801 84.78125,61.8125 20.23899,27.92407 32.65625,61.75072 32.65625,98.875 0,37.12427 -12.41726,70.98218 -32.65625,98.90625 -20.86267,28.78448 -50.23805,50.62885 -84.78125,61.8125 -16.4633,5.33013 -33.85521,8.8125 -52.09375,8.8125 -18.23853,0 -35.63071,-3.48237 -52.09375,-8.8125 C 169.36306,405.7226 139.98766,383.87823 119.125,355.09375 98.886,327.16968 86.46875,293.31177 86.46875,256.1875 c 0,-37.12428 12.41725,-70.95093 32.65625,-98.875 C 139.98766,128.52801 169.36306,106.68371 203.90625,95.5 220.36929,90.16991 237.76147,86.65625 256,86.65625 Z"
     style="opacity:0.4;fill:#ffffff;fill-opacity:1;stroke:none" />
  <path
     id="path3589"
     d="m 256.5,41 0,45.65625 c 18.05583,0.0637 35.28148,3.56256 51.59375,8.84375 34.5432,11.18371 63.91858,33.02801 84.78125,61.8125 20.23899,27.92407 32.65625,61.75072 32.65625,98.875 0,37.12427 -12.41726,70.98218 -32.65625,98.90625 -2.24738,3.10074 -4.59048,6.12748 -7.03125,9.0625 l 35.40625,29.3125 c 3.02046,-3.62837 5.96196,-7.3501 8.75,-11.1875 26.71217,-36.76602 41.1875,-80.64845 41.1875,-126.09375 0,-45.44528 -14.47533,-89.32773 -41.1875,-126.09375 C 403.28784,93.32772 365.62715,65.98089 322.40625,51.9375 300.95573,44.96784 278.77687,41.05754 256.5,41 Z m 164.75,352.46875 c -2.40151,2.88486 -4.8653,5.72092 -7.40625,8.46875 2.54603,-2.75205 5.00066,-5.579 7.40625,-8.46875 z m -39.28125,-24.8125 c -1.2969,1.45392 -2.62413,2.8737 -3.96875,4.28125 1.34677,-1.40989 2.66987,-2.8248 3.96875,-4.28125 z m -4,4.34375 c -0.74831,0.78272 -1.51845,1.54443 -2.28125,2.3125 0.76247,-0.76777 1.53326,-1.53007 2.28125,-2.3125 z m -9.5,9.15625 c -0.8225,0.73667 -1.63197,1.46699 -2.46875,2.1875 0.83305,-0.71725 1.64985,-1.45422 2.46875,-2.1875 z m -221.0625,3.375 c 0.59851,0.50417 1.20697,1.00411 1.8125,1.5 -0.60751,-0.4974 -1.21207,-0.99426 -1.8125,-1.5 z M 362.21875,387.5 c -1.26047,1.02315 -2.52238,2.04436 -3.8125,3.03125 1.28966,-0.98633 2.55246,-2.00868 3.8125,-3.03125 z M 413.75,402.03125 c -3.43009,3.7048 -6.98545,7.27316 -10.65625,10.71875 3.66897,-3.44175 7.22827,-7.01796 10.65625,-10.71875 z M 403.09375,412.75 c -0.9177,0.8614 -1.84909,1.71774 -2.78125,2.5625 0.93444,-0.8462 1.86137,-1.69959 2.78125,-2.5625 z m -2.78125,2.5625 c -0.93216,0.84476 -1.8661,1.67205 -2.8125,2.5 0.9456,-0.82664 1.88112,-1.65658 2.8125,-2.5 z m -2.8125,2.5 c -0.9464,0.82795 -1.9146,1.65779 -2.875,2.46875 0.96745,-0.81609 1.92177,-1.63543 2.875,-2.46875 z m -210.46875,-7.40625 c 0.86321,0.38629 1.72263,0.784 2.59375,1.15625 -0.86926,-0.37154 -1.73237,-0.77074 -2.59375,-1.15625 z m 133.6875,1.84375 c -1.00762,0.41787 -2.04469,0.81976 -3.0625,1.21875 1.02675,-0.40235 2.04611,-0.7972 3.0625,-1.21875 z m 65.0625,15.125 c -2.99188,2.26746 -6.04972,4.45456 -9.15625,6.5625 3.10563,-2.10525 6.16512,-4.29798 9.15625,-6.5625 z m -9.15625,6.5625 c -0.97725,0.66311 -1.94931,1.32173 -2.9375,1.96875 0.98539,-0.64463 1.96297,-1.30814 2.9375,-1.96875 z m -12.78125,8 c -1.08763,0.63148 -2.15092,1.26243 -3.25,1.875 1.09075,-0.60761 2.1705,-1.24879 3.25,-1.875 z"
     style="fill:#ffffff;fill-opacity:1;stroke:none" />
</svg>

<?xml version="1.0" encoding="UTF-8" standalone="no"?>
<!-- Created with Inkscape (http://www.inkscape.org/) -->

<svg
   xmlns:dc="http://purl.org/dc/elements/1.1/"
   xmlns:cc="http://creativecommons.org/ns#"
   xmlns:rdf="http://www.w3.org/1999/02/22-rdf-syntax-ns#"
   xmlns:svg="http://www.w3.org/2000/svg"
   xmlns="http://www.w3.org/2000/svg"
   xmlns:sodipodi="http://sodipodi.sourceforge.net/DTD/sodipodi-0.dtd"
   xmlns:inkscape="http://www.inkscape.org/namespaces/inkscape"
   version="1.1"
   width="100%"
   height="100%"
   viewBox="0 0 512 512"
   id="svg2"
   inkscape:version="0.48.5 r10040"
   sodipodi:docname="battery-040.svg">
  <sodipodi:namedview
     pagecolor="#ffffff"
     bordercolor="#666666"
     borderopacity="1"
     objecttolerance="10"
     gridtolerance="10"
     guidetolerance="10"
     inkscape:pageopacity="0"
     inkscape:pageshadow="2"
     inkscape:window-width="1307"
     inkscape:window-height="748"
     id="namedview80"
     showgrid="false"
     inkscape:zoom="0.32593203"
     inkscape:cx="524.53809"
     inkscape:cy="598.59239"
     inkscape:window-x="57"
     inkscape:window-y="-3"
     inkscape:window-maximized="1"
     inkscape:current-layer="svg2" />
  <metadata
     id="metadata158">
    <rdf:RDF>
      <cc:Work
         rdf:about="">
        <dc:format>image/svg+xml</dc:format>
        <dc:type
           rdf:resource="http://purl.org/dc/dcmitype/StillImage" />
        <dc:title></dc:title>
      </cc:Work>
    </rdf:RDF>
  </metadata>
  <defs
     id="defs156" />
  <rect
     style="fill:#e4a146;fill-opacity:1"
     id="rect4"
     y="0"
     x="0"
     rx="25.988001"
     height="512"
     width="512" />
  <path
     style="fill:#000000;fill-opacity:1;stroke:none;opacity:0.25"
     d="M 256 41 C 233.55523 41 211.20408 44.91583 189.59375 51.9375 C 146.3726 65.98089 108.71216 93.327719 82 130.09375 C 55.2881 166.85977 40.8125 210.74222 40.8125 256.1875 C 40.8125 301.6328 55.2881 345.51523 82 382.28125 C 88.66187 391.4505 95.997287 400.02853 103.9375 407.96875 L 207.96875 512 L 486 512 C 500.39735 512 512 500.39735 512 486 L 512 208.34375 L 408.09375 104.4375 C 384.19083 80.534572 354.86083 62.482683 322.40625 51.9375 C 300.79566 44.91583 278.44452 41 256 41 z "
     id="path3181" />
  <text
     style="font-size:157.21000671px;line-height:125%;letter-spacing:0;word-spacing:0;font-family:Gentium Book Basic"
     id="text12"
     y="226.02"
     x="881.22998">
    <tspan
       id="tspan14"
       y="226.02"
       x="881.22998" />
  </text>
  <text
     style="font-size:57.11999893px;text-anchor:middle;font-family:Arial"
     id="text16"
     transform="scale(4.0128,0.2492)"
     y="482.22"
     x="459.35999" />
  <text
     style="font-size:157.21000671px;line-height:125%;letter-spacing:0;word-spacing:0;font-family:Gentium Book Basic"
     id="text18"
     y="128.69"
     x="1588.38">
    <tspan
       id="tspan20"
       y="128.69"
       x="1588.38" />
  </text>
  <text
     style="font-size:57.11999893px;text-anchor:middle;font-family:Arial"
     id="text22"
     transform="scale(4.0128,0.2492)"
     y="91.660004"
     x="635.59003" />
  <text
     style="font-size:157.21000671px;line-height:125%;letter-spacing:0;word-spacing:0;font-family:Gentium Book Basic"
     id="text24"
     y="-91.82"
     x="284.73001">
    <tspan
       id="tspan26"
       y="-91.82"
       x="284.73001" />
  </text>
  <text
     style="font-size:57.11999893px;text-anchor:middle;font-family:Arial"
     id="text28"
     transform="scale(4.0128,0.2492)"
     y="-793.21997"
     x="310.72" />
  <text
     style="font-size:157.21000671px;line-height:125%;letter-spacing:0;word-spacing:0;font-family:Gentium Book Basic"
     id="text30"
     y="-355.17999"
     x="1620.58">
    <tspan
       id="tspan32"
       y="-355.17999"
       x="1620.58" />
  </text>
  <text
     style="font-size:57.11999893px;text-anchor:middle;font-family:Arial"
     id="text34"
     transform="scale(4.0128,0.2492)"
     y="-1850.03"
     x="643.60999" />
  <text
     style="font-size:157.21000671px;line-height:125%;letter-spacing:0;word-spacing:0;font-family:Gentium Book Basic"
     id="text36"
     y="-452.5"
     x="2327.74">
    <tspan
       id="tspan38"
       y="-452.5"
       x="2327.74" />
  </text>
  <text
     style="font-size:57.11999893px;text-anchor:middle;font-family:Arial"
     id="text40"
     transform="scale(4.0128,0.2492)"
     y="-2240.5901"
     x="819.84003" />
  <text
     style="font-size:157.21000671px;line-height:125%;letter-spacing:0;word-spacing:0;font-family:Gentium Book Basic"
     id="text42"
     y="-1027.21"
     x="1854.34">
    <tspan
       id="tspan44"
       y="-1027.21"
       x="1854.34" />
  </text>
  <text
     style="font-size:57.11999893px;text-anchor:middle;font-family:Arial"
     id="text46"
     transform="scale(4.0128,0.2492)"
     y="-4546.7998"
     x="701.87" />
  <text
     style="font-size:157.21000671px;line-height:125%;letter-spacing:0;word-spacing:0;font-family:Gentium Book Basic"
     id="text48"
     y="-1124.54"
     x="2561.5">
    <tspan
       id="tspan50"
       y="-1124.54"
       x="2561.5" />
  </text>
  <text
     style="font-size:57.11999893px;text-anchor:middle;font-family:Arial"
     id="text52"
     transform="scale(4.0128,0.2492)"
     y="-4937.3701"
     x="878.09003" />
  <g
     style="line-height:125%;letter-spacing:0;word-spacing:0;font-family:Gentium Book Basic"
     id="g54">
    <text
       style="font-size:253.44999695px"
       id="text56"
       y="596.56"
       x="331.75">
      <tspan
         id="tspan58"
         y="596.56"
         x="331.75" />
    </text>
    <text
       style="font-size:129.22999573px"
       id="text60"
       y="231.36"
       x="720.78998">
      <tspan
         id="tspan62"
         y="231.36"
         x="720.78998" />
    </text>
  </g>
  <text
     style="font-size:46.95399857px;text-anchor:middle;font-family:Arial"
     id="text64"
     transform="scale(4.0128,0.2492)"
     y="579.25"
     x="376.70001" />
  <text
     style="font-size:129.22999573px;line-height:125%;letter-spacing:0;word-spacing:0;font-family:Gentium Book Basic"
     id="text66"
     y="151.36"
     x="1302.0601">
    <tspan
       id="tspan68"
       y="151.36"
       x="1302.0601" />
  </text>
  <text
     style="font-size:46.95399857px;text-anchor:middle;font-family:Arial"
     id="text70"
     transform="scale(4.0128,0.2492)"
     y="258.22"
     x="521.54999" />
  <text
     style="font-size:129.22999573px;line-height:125%;letter-spacing:0;word-spacing:0;font-family:Gentium Book Basic"
     id="text72"
     y="-29.900999"
     x="230.48">
    <tspan
       id="tspan74"
       y="-29.900999"
       x="230.48" />
  </text>
  <text
     style="font-size:46.95399857px;text-anchor:middle;font-family:Arial"
     id="text76"
     transform="scale(4.0128,0.2492)"
     y="-469.14001"
     x="254.50999" />
  <text
     style="font-size:129.22999573px;line-height:125%;letter-spacing:0;word-spacing:0;font-family:Gentium Book Basic"
     id="text78"
     y="-246.37"
     x="1328.53">
    <tspan
       id="tspan80"
       y="-246.37"
       x="1328.53" />
  </text>
  <text
     style="font-size:46.95399857px;text-anchor:middle;font-family:Arial"
     id="text82"
     transform="scale(4.0128,0.2492)"
     y="-1337.8101"
     x="528.15002" />
  <text
     style="font-size:129.22999573px;line-height:125%;letter-spacing:0;word-spacing:0;font-family:Gentium Book Basic"
     id="text84"
     y="-326.38"
     x="1909.79">
    <tspan
       id="tspan86"
       y="-326.38"
       x="1909.79" />
  </text>
  <text
     style="font-size:46.95399857px;text-anchor:middle;font-family:Arial"
     id="text88"
     transform="scale(4.0128,0.2492)"
     y="-1658.85"
     x="673" />
  <text
     style="font-size:129.22999573px;line-height:125%;letter-spacing:0;word-spacing:0;font-family:Gentium Book Basic"
     id="text90"
     y="-798.78003"
     x="1520.67">
    <tspan
       id="tspan92"
       y="-798.78003"
       x="1520.67" />
  </text>
  <text
     style="font-size:46.95399857px;text-anchor:middle;font-family:Arial"
     id="text94"
     transform="scale(4.0128,0.2492)"
     y="-3554.51"
     x="576.03003" />
  <text
     style="font-size:129.22999573px;line-height:125%;letter-spacing:0;word-spacing:0;font-family:Gentium Book Basic"
     id="text96"
     y="-878.78003"
     x="2101.9399">
    <tspan
       id="tspan98"
       y="-878.78003"
       x="2101.9399" />
  </text>
  <text
     style="font-size:46.95399857px;text-anchor:middle;font-family:Arial"
     id="text100"
     transform="scale(4.0128,0.2492)"
     y="-3875.54"
     x="720.88" />
  <g
     style="line-height:125%;letter-spacing:0;word-spacing:0;font-family:Gentium Book Basic"
     id="g102">
    <text
       style="font-size:208.33000183px"
       id="text104"
       y="535.94"
       x="269.13">
      <tspan
         id="tspan106"
         y="535.94"
         x="269.13" />
    </text>
    <text
       style="font-size:129.22999573px"
       id="text108"
       y="231.36"
       x="677.52002">
      <tspan
         id="tspan110"
         y="231.36"
         x="677.52002" />
    </text>
  </g>
  <text
     style="font-size:46.95399857px;text-anchor:middle;font-family:Arial"
     id="text112"
     transform="scale(4.0128,0.2492)"
     y="579.25"
     x="365.92001" />
  <text
     style="font-size:129.22999573px;line-height:125%;letter-spacing:0;word-spacing:0;font-family:Gentium Book Basic"
     id="text114"
     y="151.36"
     x="1258.79">
    <tspan
       id="tspan116"
       y="151.36"
       x="1258.79" />
  </text>
  <text
     style="font-size:46.95399857px;text-anchor:middle;font-family:Arial"
     id="text118"
     transform="scale(4.0128,0.2492)"
     y="258.22"
     x="510.76999" />
  <text
     style="font-size:129.22999573px;line-height:125%;letter-spacing:0;word-spacing:0;font-family:Gentium Book Basic"
     id="text120"
     y="-29.900999"
     x="187.21001">
    <tspan
       id="tspan122"
       y="-29.900999"
       x="187.21001" />
  </text>
  <text
     style="font-size:46.95399857px;text-anchor:middle;font-family:Arial"
     id="text124"
     transform="scale(4.0128,0.2492)"
     y="-469.14001"
     x="243.73" />
  <text
     style="font-size:129.22999573px;line-height:125%;letter-spacing:0;word-spacing:0;font-family:Gentium Book Basic"
     id="text126"
     y="-246.37"
     x="1285.26">
    <tspan
       id="tspan128"
       y="-246.37"
       x="1285.26" />
  </text>
  <text
     style="font-size:46.95399857px;text-anchor:middle;font-family:Arial"
     id="text130"
     transform="scale(4.0128,0.2492)"
     y="-1337.8101"
     x="517.37" />
  <text
     style="font-size:129.22999573px;line-height:125%;letter-spacing:0;word-spacing:0;font-family:Gentium Book Basic"
     id="text132"
     y="-326.38"
     x="1866.53">
    <tspan
       id="tspan134"
       y="-326.38"
       x="1866.53" />
  </text>
  <text
     style="font-size:46.95399857px;text-anchor:middle;font-family:Arial"
     id="text136"
     transform="scale(4.0128,0.2492)"
     y="-1658.85"
     x="662.21997" />
  <text
     style="font-size:129.22999573px;line-height:125%;letter-spacing:0;word-spacing:0;font-family:Gentium Book Basic"
     id="text138"
     y="-798.78003"
     x="1477.41">
    <tspan
       id="tspan140"
       y="-798.78003"
       x="1477.41" />
  </text>
  <text
     style="font-size:46.95399857px;text-anchor:middle;font-family:Arial"
     id="text142"
     transform="scale(4.0128,0.2492)"
     y="-3554.51"
     x="565.25" />
  <text
     style="font-size:129.22999573px;line-height:125%;letter-spacing:0;word-spacing:0;font-family:Gentium Book Basic"
     id="text144"
     y="-878.78003"
     x="2058.6699">
    <tspan
       id="tspan146"
       y="-878.78003"
       x="2058.6699" />
  </text>
  <text
     style="font-size:46.95399857px;text-anchor:middle;font-family:Arial"
     id="text148"
     transform="scale(4.0128,0.2492)"
     y="-3875.54"
     x="710.09998" />
  <text
     style="font-size:208.33000183px;line-height:125%;letter-spacing:0;word-spacing:0;font-family:Gentium Book Basic"
     id="text150"
     y="535.94"
     x="225.87">
    <tspan
       id="tspan152"
       y="535.94"
       x="225.87" />
  </text>
  <g
     transform="matrix(0.68258418,0,0,0.68258418,81.262156,81.275693)"
     style="fill:#ffd459"
     id="g8">
    <path
       style="fill:#ffd459;fill-rule:evenodd"
       id="path10"
       transform="matrix(17.85529,0,0,17.85529,1663.4,-2022.08)"
       inkscape:connector-curvature="0"
       d="m -80.26,130.11 c 0.082,-0.262 -0.086,-0.522 -0.375,-0.522 h -4.908 c -0.289,0 -0.352,-0.235 -0.167,-0.446 l 10.486,-13.416 c 0.185,-0.212 0.252,-0.175 0.148,0.082 l -2.303,9.37 c -0.104,0.257 0.047,0.411 0.336,0.411 h 4.919 c 0.289,0 0.382,0.232 0.205,0.451 l -10.511,13.407 c -0.176,0.219 -0.254,0.18 -0.17,-0.082 z" />
  </g>
  <path
     inkscape:connector-curvature="0"
     style="fill:#ffffff;fill-opacity:1;stroke:none;opacity:0.40000000000000002"
     d="M 256,41 C 233.55523,41 211.20408,44.91583 189.59375,51.9375 146.3726,65.98089 108.71216,93.327719 82,130.09375 55.2881,166.85977 40.8125,210.74222 40.8125,256.1875 c 0,45.4453 14.4756,89.32773 41.1875,126.09375 26.71216,36.76602 64.3726,64.14414 107.59375,78.1875 43.2209,14.04339 89.59133,14.04339 132.8125,0 C 365.62714,446.42539 403.28784,419.04727 430,382.28125 456.71217,345.51523 471.1875,301.6328 471.1875,256.1875 471.1875,210.74222 456.71217,166.85977 430,130.09375 403.28784,93.327719 365.62715,65.98089 322.40625,51.9375 300.79566,44.91583 278.44452,41 256,41 z m 0,45.65625 c 18.23854,0 35.63045,3.513659 52.09375,8.84375 34.5432,11.18371 63.91858,33.02801 84.78125,61.8125 20.23899,27.92407 32.65625,61.75072 32.65625,98.875 0,37.12427 -12.41726,70.98218 -32.65625,98.90625 -20.86267,28.78448 -50.23805,50.62885 -84.78125,61.8125 -16.4633,5.33013 -33.85521,8.8125 -52.09375,8.8125 -18.23853,0 -35.63071,-3.48237 -52.09375,-8.8125 C 169.36306,405.7226 139.98766,383.87823 119.125,355.09375 98.886008,327.16968 86.46875,293.31177 86.46875,256.1875 c 0,-37.12428 12.417258,-70.95093 32.65625,-98.875 C 139.98766,128.52801 169.36306,106.68371 203.90625,95.5 220.36929,90.169909 237.76147,86.65625 256,86.65625 z"
     id="path3096" />
  <path
     style="fill:#ffffff;fill-opacity:1;stroke:none"
     d="M 256.5 41 L 256.5 86.65625 C 274.55583 86.719982 291.78148 90.218805 308.09375 95.5 C 342.63695 106.68371 372.01233 128.52801 392.875 157.3125 C 413.11399 185.23657 425.53125 219.06322 425.53125 256.1875 C 425.53125 293.31177 413.11399 327.16968 392.875 355.09375 C 390.62762 358.19449 388.28452 361.22123 385.84375 364.15625 L 421.25 393.46875 C 424.27046 389.84038 427.21196 386.11865 430 382.28125 C 456.71217 345.51523 471.1875 301.6328 471.1875 256.1875 C 471.1875 210.74222 456.71217 166.85977 430 130.09375 C 403.28784 93.327719 365.62715 65.98089 322.40625 51.9375 C 300.95573 44.96784 278.77687 41.057535 256.5 41 z M 421.25 393.46875 C 418.84849 396.35361 416.3847 399.18967 413.84375 401.9375 C 416.38978 399.18545 418.84441 396.3585 421.25 393.46875 z M 381.96875 368.65625 C 380.67185 370.11017 379.34462 371.52995 378 372.9375 C 379.34677 371.52761 380.66987 370.1127 381.96875 368.65625 z M 377.96875 373 C 377.22044 373.78272 376.4503 374.54443 375.6875 375.3125 C 376.44997 374.54473 377.22076 373.78243 377.96875 373 z M 368.46875 382.15625 C 367.64625 382.89292 366.83678 383.62324 366 384.34375 C 366.83305 383.6265 367.64985 382.88953 368.46875 382.15625 z M 147.40625 385.53125 C 148.00476 386.03542 148.61322 386.53536 149.21875 387.03125 C 148.61124 386.53385 148.00668 386.03699 147.40625 385.53125 z M 362.21875 387.5 C 360.95828 388.52315 359.69637 389.54436 358.40625 390.53125 C 359.69591 389.54492 360.95871 388.52257 362.21875 387.5 z M 413.75 402.03125 C 410.31991 405.73605 406.76455 409.30441 403.09375 412.75 C 406.76272 409.30825 410.32202 405.73204 413.75 402.03125 z M 403.09375 412.75 C 402.17605 413.6114 401.24466 414.46774 400.3125 415.3125 C 401.24694 414.4663 402.17387 413.61291 403.09375 412.75 z M 400.3125 415.3125 C 399.38034 416.15726 398.4464 416.98455 397.5 417.8125 C 398.4456 416.98586 399.38112 416.15592 400.3125 415.3125 z M 397.5 417.8125 C 396.5536 418.64045 395.5854 419.47029 394.625 420.28125 C 395.59245 419.46516 396.54677 418.64582 397.5 417.8125 z M 187.03125 410.40625 C 187.89446 410.79254 188.75388 411.19025 189.625 411.5625 C 188.75574 411.19096 187.89263 410.79176 187.03125 410.40625 z M 320.71875 412.25 C 319.71113 412.66787 318.67406 413.06976 317.65625 413.46875 C 318.683 413.0664 319.70236 412.67155 320.71875 412.25 z M 385.78125 427.375 C 382.78937 429.64246 379.73153 431.82956 376.625 433.9375 C 379.73063 431.83225 382.79012 429.63952 385.78125 427.375 z M 376.625 433.9375 C 375.64775 434.60061 374.67569 435.25923 373.6875 435.90625 C 374.67289 435.26162 375.65047 434.59811 376.625 433.9375 z M 363.84375 441.9375 C 362.75612 442.56898 361.69283 443.19993 360.59375 443.8125 C 361.6845 443.20489 362.76425 442.56371 363.84375 441.9375 z "
     id="path3589" />
</svg>
